X:1
T:James Gibb editions
T:Woeful heart with grief oppressed - Dowland
T:#
%%score [ 1 2 3 4 ]
L:1/8
Q:1/4=84
M:4/4
K:F
V:1 treble nm="Soprano" snm="S"
V:2 treble nm="Alto" snm="A"
V:3 treble-8 nm="Tenor" snm="T"
V:4 bass nm="Bass" snm="B"
V:1
"^Woeful heart with grief oppressed""^John Dowland\n(1563-1626)" z2 B4 G2 | c4 A4 | B4 A4 | G2 G6 | %4
w: Woe- ful|heart with|grief op-|pres- sed,|
w: Fly my|breast, leave|me for-|sak- en,|
[M:4/4] z2 d4 B2 | c4 d4 | B6 (cB) | A2 A6 | A4 c4 | F4 A4 | D2 (G4 ^F2) | B4 A4 | z2 d4 c2 | %13
w: Since my|for- tune's|most dis\- *|tres- sed.|From my|joys hath|me re\- *|mov- ed,|Fol- low|
w: Where- in|Grief his|seat hath *|tak- en,|All his|ar- rows|through me *|dart- ing.|Thou may'st|
 B4 A4 | G4 ^F4 | G2 G6 |: d4 f4 | c4 (d2 c2) | B4 (c2 B2) | A2 A6 | B4 c4 | (d8- | d8 | d6 cB) | %24
w: those sweet|eyes a-|dor- ed,|Those fair|eyes where\- *|in are *|stor- ed,|All my|plea\-|||
w: live by|her Sun|shin- ing,|I shall|suf- fer *|no more *|pin- ing,|By thy|loss,|||
 A2 G2 A4 | G2 G6 :| %26
w: sures best be-|lov- ed.|
w: than by her|part- ing.|
V:2
 G4 D4 | E4 D4- | D2 G4 ^F2 | G2 G6 |[M:4/4] F4 B4 | A4 A4 | D4 G4 | ^F2 !courtesy!^F6 | %8
w: Woe- ful|heart with|* grief op-|pres- sed,|Since my|for- tune's|most dis-|tres- sed.|
w: Fly my|breast, leave|* me for-|sak- en,|Where- in|Grief his|seat hath|tak- en,|
 F2 (A3 G E2) | D2 (F3 E) C2 | z2 B4 (A2- | AG G2) ^F4 | G4 A2 A2 | D4 z2 A,2 | D6 (C2 | %15
w: From my * *|joys, my * joys|hath me|* * * re-|moved, Fol- low|those sweet|eyes a\-|
w: All his * *|ar- rows, ar- rows|through me|* * * dart-|ing. Thou may'st|live by|her Sun|
 =B,2) B,6 |: z2 B4 (AG) | A4 (B3 A) | G4 (A3 G) | ^F2 F6 | G4 (F2 E2) | (D4 E4 | ^F4) G4 | %23
w: * dored,|Those fair *|eyes where\- *|in are *|stor- ed,|All my *|plea\- *|* sures|
w: shin- ing,|I shall *|suf- fer *|no more *|pin- ing,|By thy *|loss, *|* than|
 A2 (B4 AG | ^F2 G4 F2) | G2 G6 :| %26
w: best be\- * *||lov- ed.|
w: by her * *||part- ing.|
V:3
 D4 G4- | G2 (^FE F4) | G2 d3 (c A2) | =B2 B6 |[M:4/4][K:treble-8] d4 (g3 f) | e4 ^f4 | g4 d4 | %7
w: Woe- ful|* heart * *|with grief op\- *|pres- sed,|Since my *|for- tune's|most dis-|
w: Fly my|* breast, * *|leave me for\- *|sak- en,|Where- in *|Grief his|seat hath|
 d2 d6 | c6 c2 | B2 d2 c2 F2 | G2 ((d3 c A2) | B2) G2 z2 A2- | AG G2 ^F4 | G2 d4 c2 | B4 A4 | %15
w: tres- sed.|From my|joys, my joys hath|me re\- * *|mov- ed, Fol\-|* low those sweet|eyes, those sweet|eyes a-|
w: tak- en,|All his|ar- * rows through|me dart\- * *|* ing. Thou|* may'st live by|her Sun, by|her Sun|
 G2 G6 |: (B3 c) (d2 e2) | f4 d4 | _e3 (d c4) | d2 d6 | d4 c4 | B8 | (A4 G4) | d4 d4 | d6 c2 | %25
w: dor- ed,|Those * sweet *|eyes where-|in are *|stor- ed,|All my|plea-|sures, *|plea- sures|best be-|
w: shin- ing,|I * shall *|suf- fer|no more *|pin- ing,|By thy|loss,|by thy|loss, than|by her|
 =B2 B6 :| %26
w: lov- ed.|
w: part- ing.|
V:4
 G,,4 B,,4 | A,,4 D,4 | B,,2 G,,2 D,4 | G,,8 |[M:4/4] B,3 (A, G,4) | A,4 D,4 | G,6 G,,2 | D,2 D,6 | %8
w: Woe- ful|heart with|grief op- pres-|sed,|Since my *|for- tune's|most dis-|tres- sed.|
w: Fly my|breast, leave|me for- sak-|en,|Where- in *|Grief his|seat hath|tak- en,|
 (F,3 G,) A,4 | (D,3 E,) F,4 | (B,,3 C,) D,4 | G,,4 D,2 C,2 | B,,4 A,,4 | G,,4 ^F,,4 | G,,4 D,4 | %15
w: From * my|joys * hath|me * re-|moved, Fol- low|those sweet|eyes, sweet|eyes a-|
w: All * his|ar\- * rows|through * me|dart~ing. Thou may'st|live by|her, by|her Sun|
 G,,2 G,,6 |: z8 | z8 | z8 | z8 | z2 G,,2 A,,4 | (B,,4 C,4 | D,4 E,4 | %23
w: dor- ed,|||||All my|plea\- *||
w: shin- ing,|||||By thy|loss, *||
 ^F,3 E,/!courtesy!^F,/) G,4 | D,6 D,2 | G,,2 G,,6 :| %26
w: * * * sures|best be-|lov- ed.|
w: * * * than|by her|part- ing.|

